src/components/CodeEditor/TernSever/assets/boolean.svg

<svg width="14" height="14" viewBox="0 0 14 14" fill="none" xmlns="http://www.w3.org/2000/svg">
    <rect width="14" height="14" rx="2" fill="#E5E6EB"/>
    <path d="M5.30715 6.93V4.66H7.20715C7.41382 4.66 7.60715 4.67333 7.78715 4.7C7.97382 4.72 8.13715 4.77 8.27715 4.85C8.41715 4.93 8.52715 5.04333 8.60715 5.19C8.68715 5.33667 8.72715 5.53667 8.72715 5.79C8.72715 6.17 8.60715 6.45667 8.36715 6.65C8.13382 6.83667 7.74715 6.93 7.20715 6.93H5.30715ZM4.35715 3.86V11H7.80715C8.16048 11 8.47048 10.9433 8.73715 10.83C9.01048 10.71 9.23715 10.5567 9.41715 10.37C9.60382 10.1767 9.74382 9.95667 9.83715 9.71C9.93048 9.46333 9.97715 9.21 9.97715 8.95C9.97715 8.51 9.86048 8.13667 9.62715 7.83C9.39382 7.52333 9.05715 7.32333 8.61715 7.23V7.21C8.95715 7.07667 9.21715 6.87333 9.39715 6.6C9.58382 6.32 9.67715 5.99 9.67715 5.61C9.67715 5.25 9.59382 4.94667 9.42715 4.7C9.26715 4.45333 9.07048 4.26 8.83715 4.12C8.73048 4.05333 8.60048 4.00333 8.44715 3.97C8.30048 3.93667 8.14048 3.91333 7.96715 3.9C7.79382 3.88 7.61715 3.87 7.43715 3.87C7.26382 3.86333 7.10048 3.86 6.94715 3.86H4.35715ZM5.30715 10.2V7.73H7.47715C7.67715 7.73 7.87048 7.75 8.05715 7.79C8.24382 7.82333 8.40715 7.88667 8.54715 7.98C8.69382 8.06667 8.81048 8.18667 8.89715 8.34C8.98382 8.49333 9.02715 8.68667 9.02715 8.92C9.02715 9.32 8.90715 9.63333 8.66715 9.86C8.43382 10.0867 8.10715 10.2 7.68715 10.2H5.30715Z"
          fill="#787E85"/>
</svg>

<svg width="14" height="14" viewBox="0 0 14 14" fill="none" xmlns="http://www.w3.org/2000/svg">
    <rect width="14" height="14" rx="2" fill="#E5E6EB"/>
    <path d="M5.307 6.93V4.66h1.9c.207 0 .4.013.58.04.187.02.35.07.49.15.14.08.25.193.33.34.08.147.12.347.12.6 0 .38-.12.667-.36.86-.233.187-.62.28-1.16.28h-1.9zm-.95-3.07V11h3.45c.353 0 .663-.057.93-.17.273-.12.5-.273.68-.46a1.92 1.92 0 0 0 .42-.66c.093-.247.14-.5.14-.76 0-.44-.117-.813-.35-1.12-.233-.307-.57-.507-1.01-.6v-.02c.34-.133.6-.337.78-.61.187-.28.28-.61.28-.99 0-.36-.083-.663-.25-.91a1.813 1.813 0 0 0-.59-.58 1.221 1.221 0 0 0-.39-.15 3.318 3.318 0 0 0-.48-.07 4.62 4.62 0 0 0-.53-.03c-.173-.007-.337-.01-.49-.01h-2.59zm.95 6.34V7.73h2.17c.2 0 .393.02.58.06.187.033.35.097.49.19a.956.956 0 0 1 .35.36c.087.153.13.347.13.58 0 .4-.12.713-.36.94-.233.227-.56.34-.98.34h-2.38z" fill="#787E85"/>
</svg>
